X:3725
L:1/8
M:2/2
K:Gmix
 c | B>AGA B>cdB | edcB gd c2 | B>AGA B>cdB | edcB A2 c2 :: Bd g2 fe d2 | edcB gd c2 | 
 Bd g2 fe d2 | edcB A2 c2 :|

